X: 40
M:C|
L:1/8
K:D
(uAG) |\
|: (uAB) |\
c>de>f     g>fg>e    | d>ef>g a>fd>f    | g>fe>g f>ed>f | ((3efe) ((3dcB) ((3ABA) ((3GFE) |


